OverlordEngine/OverlordProject/Resources/Textures/LUT/portal-LUT.CUBE
#Created by: Adobe Photoshop Export Color Lookup Plugin
TITLE "portal-LUT.psd"
#LUT size
LUT_3D_SIZE 5
#data domain
#LUT data points
DOMAIN_MIN 0.000000 0.000000 0.000000
DOMAIN_MAX 0.903226 0.903226 0.903226
0.000000 0.000000 0.000000
0.314697 0.000000 0.000000
0.629364 0.000000 0.000000
0.944122 0.000000 0.000000
1.000000 0.000000 0.000000
0.000000 0.316437 0.000000
0.314697 0.316437 0.000000
0.629364 0.316437 0.000000
0.944122 0.316437 0.000000
1.000000 0.316437 0.000000
0.000000 0.632812 0.000000
0.314697 0.632812 0.000000
0.629364 0.632812 0.000000
0.944122 0.632812 0.000000
1.000000 0.632812 0.000000
0.000000 0.949280 0.000000
0.314697 0.949280 0.000000
0.629364 0.949280 0.000000
0.944122 0.949280 0.000000
1.000000 0.949280 0.000000
0.000000 1.000000 0.000000
0.314697 1.000000 0.000000
0.629364 1.000000 0.000000
0.944122 1.000000 0.000000
1.000000 1.000000 0.000000
0.000000 0.000000 0.329041
0.314697 0.000000 0.329041
0.629364 0.000000 0.329041
0.944122 0.000000 0.329041
1.000000 0.000000 0.329041
0.000000 0.316437 0.329041
0.314697 0.316437 0.329041
0.629364 0.316437 0.329041
0.944122 0.316437 0.329041
1.000000 0.316437 0.329041
0.000000 0.632812 0.329041
0.314697 0.632812 0.329041
0.629364 0.632812 0.329041
0.944122 0.632812 0.329041
1.000000 0.632812 0.329041
0.000000 0.949280 0.329041
0.314697 0.949280 0.329041
0.629364 0.949280 0.329041
0.944122 0.949280 0.329041
1.000000 0.949280 0.329041
0.000000 1.000000 0.329041
0.314697 1.000000 0.329041
0.629364 1.000000 0.329041
0.944122 1.000000 0.329041
1.000000 1.000000 0.329041
0.000000 0.000000 0.658051
0.314697 0.000000 0.658051
0.629364 0.000000 0.658051
0.944122 0.000000 0.658051
1.000000 0.000000 0.658051
0.000000 0.316437 0.658051
0.314697 0.316437 0.658051
0.629364 0.316437 0.658051
0.944122 0.316437 0.658051
1.000000 0.316437 0.658051
0.000000 0.632812 0.658051
0.314697 0.632812 0.658051
0.629364 0.632812 0.658051
0.944122 0.632812 0.658051
1.000000 0.632812 0.658051
0.000000 0.949280 0.658051
0.314697 0.949280 0.658051
0.629364 0.949280 0.658051
0.944122 0.949280 0.658051
1.000000 0.949280 0.658051
0.000000 1.000000 0.658051
0.314697 1.000000 0.658051
0.629364 1.000000 0.658051
0.944122 1.000000 0.658051
1.000000 1.000000 0.658051
0.000000 0.000000 0.987091
0.314697 0.000000 0.987091
0.629364 0.000000 0.987091
0.944122 0.000000 0.987091
1.000000 0.000000 0.987091
0.000000 0.316437 0.987091
0.314697 0.316437 0.987091
0.629364 0.316437 0.987091
0.944122 0.316437 0.987091
1.000000 0.316437 0.987091
0.000000 0.632812 0.987091
0.314697 0.632812 0.987091
0.629364 0.632812 0.987091
0.944122 0.632812 0.987091
1.000000 0.632812 0.987091
0.000000 0.949280 0.987091
0.314697 0.949280 0.987091
0.629364 0.949280 0.987091
0.944122 0.949280 0.987091
1.000000 0.949280 0.987091
0.000000 1.000000 0.987091
0.314697 1.000000 0.987091
0.629364 1.000000 0.987091
0.944122 1.000000 0.987091
1.000000 1.000000 0.987091
0.000000 0.000000 1.000000
0.314697 0.000000 1.000000
0.629364 0.000000 1.000000
0.944122 0.000000 1.000000
1.000000 0.000000 1.000000
0.000000 0.316437 1.000000
0.314697 0.316437 1.000000
0.629364 0.316437 1.000000
0.944122 0.316437 1.000000
1.000000 0.316437 1.000000
0.000000 0.632812 1.000000
0.314697 0.632812 1.000000
0.629364 0.632812 1.000000
0.944122 0.632812 1.000000
1.000000 0.632812 1.000000
0.000000 0.949280 1.000000
0.314697 0.949280 1.000000
0.629364 0.949280 1.000000
0.944122 0.949280 1.000000
1.000000 0.949280 1.000000
0.000000 1.000000 1.000000
0.314697 1.000000 1.000000
0.629364 1.000000 1.000000
0.944122 1.000000 1.000000
1.000000 1.000000 1.000000
