OverlordEngine/OverlordProject/Resources/Textures/LUT/portal-LUT.CUBE
#Created by: Adobe Photoshop Export Color Lookup Plugin
TITLE "portal-LUT.psd"
#LUT size
LUT_3D_SIZE 32
#data domain
DOMAIN_MIN 0.0 0.0 0.0
DOMAIN_MAX 1.0 1.0 1.0
#LUT data points
0.000000 0.000000 0.000000
0.044952 0.000000 0.000000
0.089905 0.000000 0.000000
0.134857 0.000000 0.000000
0.179840 0.000000 0.000000
0.224792 0.000000 0.000000
0.269714 0.000000 0.000000
0.314697 0.000000 0.000000
0.359650 0.000000 0.000000
0.404602 0.000000 0.000000
0.449554 0.000000 0.000000
0.494507 0.000000 0.000000
0.539490 0.000000 0.000000
0.584442 0.000000 0.000000
0.629364 0.000000 0.000000
0.674347 0.000000 0.000000
0.719330 0.000000 0.000000
0.764282 0.000000 0.000000
0.809235 0.000000 0.000000
0.854218 0.000000 0.000000
0.899170 0.000000 0.000000
0.944122 0.000000 0.000000
0.989075 0.000000 0.000000
1.000000 0.000000 0.000000
1.000000 0.000000 0.000000
1.000000 0.000000 0.000000
1.000000 0.000000 0.000000
1.000000 0.000000 0.000000
1.000000 0.000000 0.000000
1.000000 0.000000 0.000000
1.000000 0.000000 0.000000
1.000000 0.000000 0.000000
0.000000 0.045197 0.000000
0.044952 0.045197 0.000000
0.089905 0.045197 0.000000
0.134857 0.045197 0.000000
0.179840 0.045197 0.000000
0.224792 0.045197 0.000000
0.269714 0.045197 0.000000
0.314697 0.045197 0.000000
0.359650 0.045197 0.000000
0.404602 0.045197 0.000000
0.449554 0.045197 0.000000
0.494507 0.045197 0.000000
0.539490 0.045197 0.000000
0.584442 0.045197 0.000000
0.629364 0.045197 0.000000
0.674347 0.045197 0.000000
0.719330 0.045197 0.000000
0.764282 0.045197 0.000000
0.809235 0.045197 0.000000
0.854218 0.045197 0.000000
0.899170 0.045197 0.000000
0.944122 0.045197 0.000000
0.989075 0.045197 0.000000
1.000000 0.045197 0.000000
1.000000 0.045197 0.000000
1.000000 0.045197 0.000000
1.000000 0.045197 0.000000
1.000000 0.045197 0.000000
1.000000 0.045197 0.000000
1.000000 0.045197 0.000000
1.000000 0.045197 0.000000
1.000000 0.045197 0.000000
0.000000 0.090424 0.000000
0.044952 0.090424 0.000000
0.089905 0.090424 0.000000
0.134857 0.090424 0.000000
0.179840 0.090424 0.000000
0.224792 0.090424 0.000000
0.269714 0.090424 0.000000
0.314697 0.090424 0.000000
0.359650 0.090424 0.000000
0.404602 0.090424 0.000000
0.449554 0.090424 0.000000
0.494507 0.090424 0.000000
0.539490 0.090424 0.000000
0.584442 0.090424 0.000000
0.629364 0.090424 0.000000
0.674347 0.090424 0.000000
0.719330 0.090424 0.000000
0.764282 0.090424 0.000000
0.809235 0.090424 0.000000
0.854218 0.090424 0.000000
0.899170 0.090424 0.000000
0.944122 0.090424 0.000000
0.989075 0.090424 0.000000
1.000000 0.090424 0.000000
1.000000 0.090424 0.000000
1.000000 0.090424 0.000000
1.000000 0.090424 0.000000
1.000000 0.090424 0.000000
1.000000 0.090424 0.000000
1.000000 0.090424 0.000000
1.000000 0.090424 0.000000
1.000000 0.090424 0.000000
0.000000 0.135620 0.000000
0.044952 0.135620 0.000000
0.089905 0.135620 0.000000
0.134857 0.135620 0.000000
0.179840 0.135620 0.000000
0.224792 0.135620 0.000000
0.269714 0.135620 0.000000
0.314697 0.135620 0.000000
0.359650 0.135620 0.000000
0.404602 0.135620 0.000000
0.449554 0.135620 0.000000
0.494507 0.135620 0.000000
0.539490 0.135620 0.000000
0.584442 0.135620 0.000000
0.629364 0.135620 0.000000
0.674347 0.135620 0.000000
0.719330 0.135620 0.000000
0.764282 0.135620 0.000000
0.809235 0.135620 0.000000
0.854218 0.135620 0.000000
0.899170 0.135620 0.000000
0.944122 0.135620 0.000000
0.989075 0.135620 0.000000
1.000000 0.135620 0.000000
1.000000 0.135620 0.000000
1.000000 0.135620 0.000000
1.000000 0.135620 0.000000
1.000000 0.135620 0.000000
1.000000 0.135620 0.000000
1.000000 0.135620 0.000000
1.000000 0.135620 0.000000
1.000000 0.135620 0.000000
0.000000 0.180817 0.000000
0.044952 0.180817 0.000000
0.089905 0.180817 0.000000
0.134857 0.180817 0.000000
0.179840 0.180817 0.000000
0.224792 0.180817 0.000000
0.269714 0.180817 0.000000
0.314697 0.180817 0.000000
0.359650 0.180817 0.000000
0.404602 0.180817 0.000000
0.449554 0.180817 0.000000
0.494507 0.180817 0.000000
0.539490 0.180817 0.000000
0.584442 0.180817 0.000000
0.629364 0.180817 0.000000
0.674347 0.180817 0.000000
0.719330 0.180817 0.000000
0.764282 0.180817 0.000000
0.809235 0.180817 0.000000
0.854218 0.180817 0.000000
0.899170 0.180817 0.000000
0.944122 0.180817 0.000000
0.989075 0.180817 0.000000
1.000000 0.180817 0.000000
1.000000 0.180817 0.000000
1.000000 0.180817 0.000000
1.000000 0.180817 0.000000
1.000000 0.180817 0.000000
1.000000 0.180817 0.000000
1.000000 0.180817 0.000000
1.000000 0.180817 0.000000
1.000000 0.180817 0.000000
0.000000 0.226013 0.000000
0.044952 0.226013 0.000000
0.089905 0.226013 0.000000
0.134857 0.226013 0.000000
0.179840 0.226013 0.000000
0.224792 0.226013 0.000000
0.269714 0.226013 0.000000
0.314697 0.226013 0.000000
0.359650 0.226013 0.000000
0.404602 0.226013 0.000000
0.449554 0.226013 0.000000
0.494507 0.226013 0.000000
0.539490 0.226013 0.000000
0.584442 0.226013 0.000000
0.629364 0.226013 0.000000
0.674347 0.226013 0.000000
0.719330 0.226013 0.000000
0.764282 0.226013 0.000000
0.809235 0.226013 0.000000
0.854218 0.226013 0.000000
0.899170 0.226013 0.000000
0.944122 0.226013 0.000000
0.989075 0.226013 0.000000
1.000000 0.226013 0.000000
1.000000 0.226013 0.000000
1.000000 0.226013 0.000000
1.000000 0.226013 0.000000
1.000000 0.226013 0.000000
1.000000 0.226013 0.000000
1.000000 0.226013 0.000000
1.000000 0.226013 0.000000
1.000000 0.226013 0.000000
0.000000 0.271210 0.000000
0.044952 0.271210 0.000000
0.089905 0.271210 0.000000
0.134857 0.271210 0.000000
0.179840 0.271210 0.000000
0.224792 0.271210 0.000000
0.269714 0.271210 0.000000
0.314697 0.271210 0.000000
0.359650 0.271210 0.000000
0.404602 0.271210 0.000000
0.449554 0.271210 0.000000
0.494507 0.271210 0.000000
0.539490 0.271210 0.000000
0.584442 0.271210 0.000000
0.629364 0.271210 0.000000
0.674347 0.271210 0.000000
0.719330 0.271210 0.000000
0.764282 0.271210 0.000000
0.809235 0.271210 0.000000
0.854218 0.271210 0.000000
0.899170 0.271210 0.000000
0.944122 0.271210 0.000000
0.989075 0.271210 0.000000
1.000000 0.271210 0.000000
1.000000 0.271210 0.000000
1.000000 0.271210 0.000000
1.000000 0.271210 0.000000
1.000000 0.271210 0.000000
1.000000 0.271210 0.000000
1.000000 0.271210 0.000000
1.000000 0.271210 0.000000
1.000000 0.271210 0.000000
0.000000 0.316437 0.000000
0.044952 0.316437 0.000000
0.089905 0.316437 0.000000
0.134857 0.316437 0.000000
0.179840 0.316437 0.000000
0.224792 0.316437 0.000000
0.269714 0.316437 0.000000
0.314697 0.316437 0.000000
0.359650 0.316437 0.000000
0.404602 0.316437 0.000000
0.449554 0.316437 0.000000
0.494507 0.316437 0.000000
0.539490 0.316437 0.000000
0.584442 0.316437 0.000000
0.629364 0.316437 0.000000
0.674347 0.316437 0.000000
0.719330 0.316437 0.000000
0.764282 0.316437 0.000000
0.809235 0.316437 0.000000
0.854218 0.316437 0.000000
0.899170 0.316437 0.000000
0.944122 0.316437 0.000000
0.989075 0.316437 0.000000
1.000000 0.316437 0.000000
1.000000 0.316437 0.000000
1.000000 0.316437 0.000000
1.000000 0.316437 0.000000
1.000000 0.316437 0.000000
1.000000 0.316437 0.000000
1.000000 0.316437 0.000000
1.000000 0.316437 0.000000
1.000000 0.316437 0.000000
0.000000 0.361603 0.000000
0.044952 0.361603 0.000000
0.089905 0.361603 0.000000
0.134857 0.361603 0.000000
0.179840 0.361603 0.000000
0.224792 0.361603 0.000000
0.269714 0.361603 0.000000
0.314697 0.361603 0.000000
0.359650 0.361603 0.000000
0.404602 0.361603 0.000000
0.449554 0.361603 0.000000
0.494507 0.361603 0.000000
0.539490 0.361603 0.000000
0.584442 0.361603 0.000000
0.629364 0.361603 0.000000
0.674347 0.361603 0.000000
0.719330 0.361603 0.000000
0.764282 0.361603 0.000000
0.809235 0.361603 0.000000
0.854218 0.361603 0.000000
0.899170 0.361603 0.000000
0.944122 0.361603 0.000000
0.989075 0.361603 0.000000
1.000000 0.361603 0.000000
1.000000 0.361603 0.000000
1.000000 0.361603 0.000000
1.000000 0.361603 0.000000
1.000000 0.361603 0.000000
1.000000 0.361603 0.000000
1.000000 0.361603 0.000000
1.000000 0.361603 0.000000
1.000000 0.361603 0.000000
0.000000 0.406799 0.000000
0.044952 0.406799 0.000000
0.089905 0.406799 0.000000
0.134857 0.406799 0.000000
0.179840 0.406799 0.000000
0.224792 0.406799 0.000000
0.269714 0.406799 0.000000
0.314697 0.406799 0.000000
0.359650 0.406799 0.000000
0.404602 0.406799 0.000000
0.449554 0.406799 0.000000
0.494507 0.406799 0.000000
0.539490 0.406799 0.000000
0.584442 0.406799 0.000000
0.629364 0.406799 0.000000
0.674347 0.406799 0.000000
0.719330 0.406799 0.000000
0.764282 0.406799 0.000000
0.809235 0.406799 0.000000
0.854218 0.406799 0.000000
0.899170 0.406799 0.000000
0.944122 0.406799 0.000000
0.989075 0.406799 0.000000
1.000000 0.406799 0.000000
1.000000 0.406799 0.000000
1.000000 0.406799 0.000000
1.000000 0.406799 0.000000
1.000000 0.406799 0.000000
1.000000 0.406799 0.000000
1.000000 0.406799 0.000000
1.000000 0.406799 0.000000
1.000000 0.406799 0.000000
0.000000 0.452026 0.000000
0.044952 0.452026 0.000000
0.089905 0.452026 0.000000
0.134857 0.452026 0.000000
0.179840 0.452026 0.000000
0.224792 0.452026 0.000000
0.269714 0.452026 0.000000
0.314697 0.452026 0.000000
0.359650 0.452026 0.000000
0.404602 0.452026 0.000000
0.449554 0.452026 0.000000
0.494507 0.452026 0.000000
0.539490 0.452026 0.000000
0.584442 0.452026 0.000000
0.629364 0.452026 0.000000
0.674347 0.452026 0.000000
0.719330 0.452026 0.000000
0.764282 0.452026 0.000000
0.809235 0.452026 0.000000
0.854218 0.452026 0.000000
0.899170 0.452026 0.000000
0.944122 0.452026 0.000000
0.989075 0.452026 0.000000
1.000000 0.452026 0.000000
1.000000 0.452026 0.000000
1.000000 0.452026 0.000000
1.000000 0.452026 0.000000
1.000000 0.452026 0.000000
1.000000 0.452026 0.000000
1.000000 0.452026 0.000000
1.000000 0.452026 0.000000
1.000000 0.452026 0.000000
0.000000 0.497223 0.000000
0.044952 0.497223 0.000000
0.089905 0.497223 0.000000
0.134857 0.497223 0.000000
0.179840 0.497223 0.000000
0.224792 0.497223 0.000000
0.269714 0.497223 0.000000
0.314697 0.497223 0.000000
0.359650 0.497223 0.000000
0.404602 0.497223 0.000000
0.449554 0.497223 0.000000
0.494507 0.497223 0.000000
0.539490 0.497223 0.000000
0.584442 0.497223 0.000000
0.629364 0.497223 0.000000
0.674347 0.497223 0.000000
0.719330 0.497223 0.000000
0.764282 0.497223 0.000000
0.809235 0.497223 0.000000
0.854218 0.497223 0.000000
0.899170 0.497223 0.000000
0.944122 0.497223 0.000000
0.989075 0.497223 0.000000
1.000000 0.497223 0.000000
1.000000 0.497223 0.000000
1.000000 0.497223 0.000000
1.000000 0.497223 0.000000
1.000000 0.497223 0.000000
1.000000 0.497223 0.000000
1.000000 0.497223 0.000000
1.000000 0.497223 0.000000
1.000000 0.497223 0.000000
0.000000 0.542419 0.000000
0.044952 0.542419 0.000000
0.089905 0.542419 0.000000
0.134857 0.542419 0.000000
0.179840 0.542419 0.000000
0.224792 0.542419 0.000000
0.269714 0.542419 0.000000
0.314697 0.542419 0.000000
0.359650 0.542419 0.000000
0.404602 0.542419 0.000000
0.449554 0.542419 0.000000
0.494507 0.542419 0.000000
0.539490 0.542419 0.000000
0.584442 0.542419 0.000000
0.629364 0.542419 0.000000
0.674347 0.542419 0.000000
0.719330 0.542419 0.000000
0.764282 0.542419 0.000000
0.809235 0.542419 0.000000
0.854218 0.542419 0.000000
0.899170 0.542419 0.000000
0.944122 0.542419 0.000000
0.989075 0.542419 0.000000
1.000000 0.542419 0.000000
1.000000 0.542419 0.000000
1.000000 0.542419 0.000000
1.000000 0.542419 0.000000
1.000000 0.542419 0.000000
1.000000 0.542419 0.000000
1.000000 0.542419 0.000000
1.000000 0.542419 0.000000
1.000000 0.542419 0.000000
0.000000 0.587616 0.000000
0.044952 0.587616 0.000000
0.089905 0.587616 0.000000
0.134857 0.587616 0.000000
0.179840 0.587616 0.000000
0.224792 0.587616 0.000000
0.269714 0.587616 0.000000
0.314697 0.587616 0.000000
0.359650 0.587616 0.000000
0.404602 0.587616 0.000000
0.449554 0.587616 0.000000
0.494507 0.587616 0.000000
0.539490 0.587616 0.000000
0.584442 0.587616 0.000000
0.629364 0.587616 0.000000
0.674347 0.587616 0.000000
0.719330 0.587616 0.000000
0.764282 0.587616 0.000000
0.809235 0.587616 0.000000
0.854218 0.587616 0.000000
0.899170 0.587616 0.000000
0.944122 0.587616 0.000000
0.989075 0.587616 0.000000
1.000000 0.587616 0.000000
1.000000 0.587616 0.000000
1.000000 0.587616 0.000000
1.000000 0.587616 0.000000
1.000000 0.587616 0.000000
1.000000 0.587616 0.000000
1.000000 0.587616 0.000000
1.000000 0.587616 0.000000
1.000000 0.587616 0.000000
0.000000 0.632812 0.000000
0.044952 0.632812 0.000000
0.089905 0.632812 0.000000
0.134857 0.632812 0.000000
0.179840 0.632812 0.000000
0.224792 0.632812 0.000000
0.269714 0.632812 0.000000
0.314697 0.632812 0.000000
0.359650 0.632812 0.000000
0.404602 0.632812 0.000000
0.449554 0.632812 0.000000
0.494507 0.632812 0.000000
0.539490 0.632812 0.000000
0.584442 0.632812 0.000000
0.629364 0.632812 0.000000
0.674347 0.632812 0.000000
0.719330 0.632812 0.000000
0.764282 0.632812 0.000000
0.809235 0.632812 0.000000
0.854218 0.632812 0.000000
0.899170 0.632812 0.000000
0.944122 0.632812 0.000000
0.989075 0.632812 0.000000
1.000000 0.632812 0.000000
1.000000 0.632812 0.000000
1.000000 0.632812 0.000000
1.000000 0.632812 0.000000
1.000000 0.632812 0.000000
1.000000 0.632812 0.000000
1.000000 0.632812 0.000000
1.000000 0.632812 0.000000
1.000000 0.632812 0.000000
0.000000 0.678040 0.000000
0.044952 0.678040 0.000000
0.089905 0.678040 0.000000
0.134857 0.678040 0.000000
0.179840 0.678040 0.000000
0.224792 0.678040 0.000000
0.269714 0.678040 0.000000
0.314697 0.678040 0.000000
0.359650 0.678040 0.000000
0.404602 0.678040 0.000000
0.449554 0.678040 0.000000
0.494507 0.678040 0.000000
0.539490 0.678040 0.000000
0.584442 0.678040 0.000000
0.629364 0.678040 0.000000
0.674347 0.678040 0.000000
0.719330 0.678040 0.000000
0.764282 0.678040 0.000000
0.809235 0.678040 0.000000
0.854218 0.678040 0.000000
0.899170 0.678040 0.000000
0.944122 0.678040 0.000000
0.989075 0.678040 0.000000
1.000000 0.678040 0.000000
1.000000 0.678040 0.000000
1.000000 0.678040 0.000000
1.000000 0.678040 0.000000
1.000000 0.678040 0.000000
1.000000 0.678040 0.000000
1.000000 0.678040 0.000000
1.000000 0.678040 0.000000
1.000000 0.678040 0.000000
0.000000 0.723267 0.000000
0.044952 0.723267 0.000000
0.089905 0.723267 0.000000
0.134857 0.723267 0.000000
0.179840 0.723267 0.000000
0.224792 0.723267 0.000000
0.269714 0.723267 0.000000
0.314697 0.723267 0.000000
0.359650 0.723267 0.000000
0.404602 0.723267 0.000000
0.449554 0.723267 0.000000
0.494507 0.723267 0.000000
0.539490 0.723267 0.000000
0.584442 0.723267 0.000000
0.629364 0.723267 0.000000
0.674347 0.723267 0.000000
0.719330 0.723267 0.000000
0.764282 0.723267 0.000000
0.809235 0.723267 0.000000
0.854218 0.723267 0.000000
0.899170 0.723267 0.000000
0.944122 0.723267 0.000000
0.989075 0.723267 0.000000
1.000000 0.723267 0.000000
1.000000 0.723267 0.000000
1.000000 0.723267 0.000000
1.000000 0.723267 0.000000
1.000000 0.723267 0.000000
1.000000 0.723267 0.000000
1.000000 0.723267 0.000000
1.000000 0.723267 0.000000
1.000000 0.723267 0.000000
0.000000 0.768494 0.000000
0.044952 0.768494 0.000000
0.089905 0.768494 0.000000
0.134857 0.768494 0.000000
0.179840 0.768494 0.000000
0.224792 0.768494 0.000000
0.269714 0.768494 0.000000
0.314697 0.768494 0.000000
0.359650 0.768494 0.000000
0.404602 0.768494 0.000000
0.449554 0.768494 0.000000
0.494507 0.768494 0.000000
0.539490 0.768494 0.000000
0.584442 0.768494 0.000000
0.629364 0.768494 0.000000
0.674347 0.768494 0.000000
0.719330 0.768494 0.000000
0.764282 0.768494 0.000000
0.809235 0.768494 0.000000
0.854218 0.768494 0.000000
0.899170 0.768494 0.000000
0.944122 0.768494 0.000000
0.989075 0.768494 0.000000
1.000000 0.768494 0.000000
1.000000 0.768494 0.000000
1.000000 0.768494 0.000000
1.000000 0.768494 0.000000
1.000000 0.768494 0.000000
1.000000 0.768494 0.000000
1.000000 0.768494 0.000000
1.000000 0.768494 0.000000
1.000000 0.768494 0.000000
0.000000 0.813690 0.000000
0.044952 0.813690 0.000000
0.089905 0.813690 0.000000
0.134857 0.813690 0.000000
0.179840 0.813690 0.000000
0.224792 0.813690 0.000000
0.269714 0.813690 0.000000
0.314697 0.813690 0.000000
0.359650 0.813690 0.000000
0.404602 0.813690 0.000000
0.449554 0.813690 0.000000
0.494507 0.813690 0.000000
0.539490 0.813690 0.000000
0.584442 0.813690 0.000000
0.629364 0.813690 0.000000
0.674347 0.813690 0.000000
0.719330 0.813690 0.000000
0.764282 0.813690 0.000000
0.809235 0.813690 0.000000
0.854218 0.813690 0.000000
0.899170 0.813690 0.000000
0.944122 0.813690 0.000000
0.989075 0.813690 0.000000
1.000000 0.813690 0.000000
1.000000 0.813690 0.000000
1.000000 0.813690 0.000000
1.000000 0.813690 0.000000
1.000000 0.813690 0.000000
1.000000 0.813690 0.000000
1.000000 0.813690 0.000000
1.000000 0.813690 0.000000
1.000000 0.813690 0.000000
0.000000 0.858887 0.000000
0.044952 0.858887 0.000000
0.089905 0.858887 0.000000
0.134857 0.858887 0.000000
0.179840 0.858887 0.000000
0.224792 0.858887 0.000000
0.269714 0.858887 0.000000
0.314697 0.858887 0.000000
0.359650 0.858887 0.000000
0.404602 0.858887 0.000000
0.449554 0.858887 0.000000
0.494507 0.858887 0.000000
0.539490 0.858887 0.000000
0.584442 0.858887 0.000000
0.629364 0.858887 0.000000
0.674347 0.858887 0.000000
0.719330 0.858887 0.000000
0.764282 0.858887 0.000000
0.809235 0.858887 0.000000
0.854218 0.858887 0.000000
0.899170 0.858887 0.000000
0.944122 0.858887 0.000000
0.989075 0.858887 0.000000
1.000000 0.858887 0.000000
1.000000 0.858887 0.000000
1.000000 0.858887 0.000000
1.000000 0.858887 0.000000
1.000000 0.858887 0.000000
1.000000 0.858887 0.000000
1.000000 0.858887 0.000000
1.000000 0.858887 0.000000
1.000000 0.858887 0.000000
0.000000 0.904083 0.000000
0.044952 0.904083 0.000000
0.089905 0.904083 0.000000
0.134857 0.904083 0.000000
0.179840 0.904083 0.000000
0.224792 0.904083 0.000000
0.269714 0.904083 0.000000
0.314697 0.904083 0.000000
0.359650 0.904083 0.000000
0.404602 0.904083 0.000000
0.449554 0.904083 0.000000
0.494507 0.904083 0.000000
0.539490 0.904083 0.000000
0.584442 0.904083 0.000000
0.629364 0.904083 0.000000
0.674347 0.904083 0.000000
0.719330 0.904083 0.000000
0.764282 0.904083 0.000000
0.809235 0.904083 0.000000
0.854218 0.904083 0.000000
0.899170 0.904083 0.000000
0.944122 0.904083 0.000000
0.989075 0.904083 0.000000
1.000000 0.904083 0.000000
1.000000 0.904083 0.000000
1.000000 0.904083 0.000000
1.000000 0.904083 0.000000
1.000000 0.904083 0.000000
1.000000 0.904083 0.000000
1.000000 0.904083 0.000000
1.000000 0.904083 0.000000
1.000000 0.904083 0.000000
0.000000 0.949280 0.000000
0.044952 0.949280 0.000000
0.089905 0.949280 0.000000
0.134857 0.949280 0.000000
0.179840 0.949280 0.000000
0.224792 0.949280 0.000000
0.269714 0.949280 0.000000
0.314697 0.949280 0.000000
0.359650 0.949280 0.000000
0.404602 0.949280 0.000000
0.449554 0.949280 0.000000
0.494507 0.949280 0.000000
0.539490 0.949280 0.000000
0.584442 0.949280 0.000000
0.629364 0.949280 0.000000
0.674347 0.949280 0.000000
0.719330 0.949280 0.000000
0.764282 0.949280 0.000000
0.809235 0.949280 0.000000
0.854218 0.949280 0.000000
0.899170 0.949280 0.000000
0.944122 0.949280 0.000000
0.989075 0.949280 0.000000
1.000000 0.949280 0.000000
1.000000 0.949280 0.000000
1.000000 0.949280 0.000000
1.000000 0.949280 0.000000
1.000000 0.949280 0.000000
1.000000 0.949280 0.000000
1.000000 0.949280 0.000000
1.000000 0.949280 0.000000
1.000000 0.949280 0.000000
0.000000 0.994507 0.000000
0.044952 0.994507 0.000000
0.089905 0.994507 0.000000
0.134857 0.994507 0.000000
0.179840 0.994507 0.000000
0.224792 0.994507 0.000000
0.269714 0.994507 0.000000
0.314697 0.994507 0.000000
0.359650 0.994507 0.000000
0.404602 0.994507 0.000000
0.449554 0.994507 0.000000
0.494507 0.994507 0.000000
0.539490 0.994507 0.000000
0.584442 0.994507 0.000000
0.629364 0.994507 0.000000
0.674347 0.994507 0.000000
0.719330 0.994507 0.000000
0.764282 0.994507 0.000000
0.809235 0.994507 0.000000
0.854218 0.994507 0.000000
0.899170 0.994507 0.000000
0.944122 0.994507 0.000000
0.989075 0.994507 0.000000
1.000000 0.994507 0.000000
1.000000 0.994507 0.000000
1.000000 0.994507 0.000000
1.000000 0.994507 0.000000
1.000000 0.994507 0.000000
1.000000 0.994507 0.000000
1.000000 0.994507 0.000000
1.000000 0.994507 0.000000
1.000000 0.994507 0.000000
0.000000 1.000000 0.000000
0.044952 1.000000 0.000000
0.089905 1.000000 0.000000
0.134857 1.000000 0.000000
0.179840 1.000000 0.000000
0.224792 1.000000 0.000000
0.269714 1.000000 0.000000
0.314697 1.000000 0.000000
0.359650 1.000000 0.000000
0.404602 1.000000 0.000000
0.449554 1.000000 0.000000
0.494507 1.000000 0.000000
0.539490 1.000000 0.000000
0.584442 1.000000 0.000000
0.629364 1.000000 0.000000
0.674347 1.000000 0.000000
0.719330 1.000000 0.000000
0.764282 1.000000 0.000000
0.809235 1.000000 0.000000
0.854218 1.000000 0.000000
0.899170 1.000000 0.000000
0.944122 1.000000 0.000000
0.989075 1.000000 0.000000
1.000000 1.000000 0.000000
1.000000 1.000000 0.000000
1.000000 1.000000 0.000000
1.000000 1.000000 0.000000
1.000000 1.000000 0.000000
1.000000 1.000000 0.000000
1.000000 1.000000 0.000000
1.000000 1.000000 0.000000
1.000000 1.000000 0.000000
0.000000 1.000000 0.000000
0.044952 1.000000 0.000000
0.089905 1.000000 0.000000
0.134857 1.000000 0.000000
0.179840 1.000000 0.000000
0.224792 1.000000 0.000000
0.269714 1.000000 0.000000
0.314697 1.000000 0.000000
0.359650 1.000000 0.000000
0.404602 1.000000 0.000000
0.449554 1.000000 0.000000
0.494507 1.000000 0.000000
0.539490 1.000000 0.000000
0.584442 1.000000 0.000000
0.629364 1.000000 0.000000
0.674347 1.000000 0.000000
0.719330 1.000000 0.000000
0.764282 1.000000 0.000000
0.809235 1.000000 0.000000
0.854218 1.000000 0.000000
0.899170 1.000000 0.000000
0.944122 1.000000 0.000000
0.989075 1.000000 0.000000
1.000000 1.000000 0.000000
1.000000 1.000000 0.000000
1.000000 1.000000 0.000000
1.000000 1.000000 0.000000
1.000000 1.000000 0.000000
1.000000 1.000000 0.000000
1.000000 1.000000 0.000000
1.000000 1.000000 0.000000
1.000000 1.000000 0.000000
0.000000 1.000000 0.000000
0.044952 1.000000 0.000000
0.089905 1.000000 0.000000
0.134857 1.000000 0.000000
0.179840 1.000000 0.000000
0.224792 1.000000 0.000000
0.269714 1.000000 0.000000
0.314697 1.000000 0.000000
0.359650 1.000000 0.000000
0.404602 1.000000 0.000000
0.449554 1.000000 0.000000
0.494507 1.000000 0.000000
0.539490 1.000000 0.000000
0.584442 1.000000 0.000000
0.629364 1.000000 0.000000
0.674347 1.000000 0.000000
0.719330 1.000000 0.000000
0.764282 1.000000 0.000000
0.809235 1.000000 0.000000
0.854218 1.000000 0.000000
0.899170 1.000000 0.000000
0.944122 1.000000 0.000000
0.989075 1.000000 0.000000
1.000000 1.000000 0.000000
1.000000 1.000000 0.000000
1.000000 1.000000 0.000000
1.000000 1.000000 0.000000
1.000000 1.000000 0.000000
1.000000 1.000000 0.000000
1.000000 1.000000 0.000000
1.000000 1.000000 0.000000
1.000000 1.000000 0.000000
0.000000 1.000000 0.000000
0.044952 1.000000 0.000000
0.089905 1.000000 0.000000
0.134857 1.000000 0.000000
0.179840 1.000000 0.000000
0.224792 1.000000 0.000000
0.269714 1.000000 0.000000
0.314697 1.000000 0.000000
0.359650 1.000000 0.000000
0.404602 1.000000 0.000000
0.449554 1.000000 0.000000
0.494507 1.000000 0.000000
0.539490 1.000000 0.000000
0.584442 1.000000 0.000000
0.629364 1.000000 0.000000
0.674347 1.000000 0.000000
0.719330 1.000000 0.000000
0.764282 1.000000 0.000000
0.809235 1.000000 0.000000
0.854218 1.000000 0.000000
0.899170 1.000000 0.000000
0.944122 1.000000 0.000000
0.989075 1.000000 0.000000
1.000000 1.000000 0.000000
1.000000 1.000000 0.000000
1.000000 1.000000 0.000000
1.000000 1.000000 0.000000
1.000000 1.000000 0.000000
1.000000 1.000000 0.000000
1.000000 1.000000 0.000000
1.000000 1.000000 0.000000
1.000000 1.000000 0.000000
0.000000 1.000000 0.000000
0.044952 1.000000 0.000000
0.089905 1.000000 0.000000
0.134857 1.000000 0.000000
0.179840 1.000000 0.000000
0.224792 1.000000 0.000000
0.269714 1.000000 0.000000
0.314697 1.000000 0.000000
0.359650 1.000000 0.000000
0.404602 1.000000 0.000000
0.449554 1.000000 0.000000
0.494507 1.000000 0.000000
0.539490 1.000000 0.000000
0.584442 1.000000 0.000000
0.629364 1.000000 0.000000
0.674347 1.000000 0.000000
0.719330 1.000000 0.000000
0.764282 1.000000 0.000000
