OverlordEngine/OverlordProject/Resources/Textures/LUT/portal-LUT.CUBE
#Created by: Adobe Photoshop Export Color Lookup Plugin
TITLE "portal-LUT.psd"
#LUT size
LUT_3D_SIZE 8
#data domain
#LUT data points
DOMAIN_MIN 0.000000 0.000000 0.000000
DOMAIN_MAX 0.903226 0.903226 0.903226
0.000000 0.000000 0.000000
0.179840 0.000000 0.000000
0.359650 0.000000 0.000000
0.539490 0.000000 0.000000
0.719330 0.000000 0.000000
0.899170 0.000000 0.000000
1.000000 0.000000 0.000000
1.000000 0.000000 0.000000
0.000000 0.180817 0.000000
0.179840 0.180817 0.000000
0.359650 0.180817 0.000000
0.539490 0.180817 0.000000
0.719330 0.180817 0.000000
0.899170 0.180817 0.000000
1.000000 0.180817 0.000000
1.000000 0.180817 0.000000
0.000000 0.361603 0.000000
0.179840 0.361603 0.000000
0.359650 0.361603 0.000000
0.539490 0.361603 0.000000
0.719330 0.361603 0.000000
0.899170 0.361603 0.000000
1.000000 0.361603 0.000000
1.000000 0.361603 0.000000
0.000000 0.542419 0.000000
0.179840 0.542419 0.000000
0.359650 0.542419 0.000000
0.539490 0.542419 0.000000
0.719330 0.542419 0.000000
0.899170 0.542419 0.000000
1.000000 0.542419 0.000000
1.000000 0.542419 0.000000
0.000000 0.723267 0.000000
0.179840 0.723267 0.000000
0.359650 0.723267 0.000000
0.539490 0.723267 0.000000
0.719330 0.723267 0.000000
0.899170 0.723267 0.000000
1.000000 0.723267 0.000000
1.000000 0.723267 0.000000
0.000000 0.904083 0.000000
0.179840 0.904083 0.000000
0.359650 0.904083 0.000000
0.539490 0.904083 0.000000
0.719330 0.904083 0.000000
0.899170 0.904083 0.000000
1.000000 0.904083 0.000000
1.000000 0.904083 0.000000
0.000000 1.000000 0.000000
0.179840 1.000000 0.000000
0.359650 1.000000 0.000000
0.539490 1.000000 0.000000
0.719330 1.000000 0.000000
0.899170 1.000000 0.000000
1.000000 1.000000 0.000000
1.000000 1.000000 0.000000
0.000000 1.000000 0.000000
0.179840 1.000000 0.000000
0.359650 1.000000 0.000000
0.539490 1.000000 0.000000
0.719330 1.000000 0.000000
0.899170 1.000000 0.000000
1.000000 1.000000 0.000000
1.000000 1.000000 0.000000
0.000000 0.000000 0.188019
0.179840 0.000000 0.188019
0.359650 0.000000 0.188019
0.539490 0.000000 0.188019
0.719330 0.000000 0.188019
0.899170 0.000000 0.188019
1.000000 0.000000 0.188019
1.000000 0.000000 0.188019
0.000000 0.180817 0.188019
0.179840 0.180817 0.188019
0.359650 0.180817 0.188019
0.539490 0.180817 0.188019
0.719330 0.180817 0.188019
0.899170 0.180817 0.188019
1.000000 0.180817 0.188019
1.000000 0.180817 0.188019
0.000000 0.361603 0.188019
0.179840 0.361603 0.188019
0.359650 0.361603 0.188019
0.539490 0.361603 0.188019
0.719330 0.361603 0.188019
0.899170 0.361603 0.188019
1.000000 0.361603 0.188019
1.000000 0.361603 0.188019
0.000000 0.542419 0.188019
0.179840 0.542419 0.188019
0.359650 0.542419 0.188019
0.539490 0.542419 0.188019
0.719330 0.542419 0.188019
0.899170 0.542419 0.188019
1.000000 0.542419 0.188019
1.000000 0.542419 0.188019
0.000000 0.723267 0.188019
0.179840 0.723267 0.188019
0.359650 0.723267 0.188019
0.539490 0.723267 0.188019
0.719330 0.723267 0.188019
0.899170 0.723267 0.188019
1.000000 0.723267 0.188019
1.000000 0.723267 0.188019
0.000000 0.904083 0.188019
0.179840 0.904083 0.188019
0.359650 0.904083 0.188019
0.539490 0.904083 0.188019
0.719330 0.904083 0.188019
0.899170 0.904083 0.188019
1.000000 0.904083 0.188019
1.000000 0.904083 0.188019
0.000000 1.000000 0.188019
0.179840 1.000000 0.188019
0.359650 1.000000 0.188019
0.539490 1.000000 0.188019
0.719330 1.000000 0.188019
0.899170 1.000000 0.188019
1.000000 1.000000 0.188019
1.000000 1.000000 0.188019
0.000000 1.000000 0.188019
0.179840 1.000000 0.188019
0.359650 1.000000 0.188019
0.539490 1.000000 0.188019
0.719330 1.000000 0.188019
0.899170 1.000000 0.188019
1.000000 1.000000 0.188019
1.000000 1.000000 0.188019
0.000000 0.000000 0.376038
0.179840 0.000000 0.376038
0.359650 0.000000 0.376038
0.539490 0.000000 0.376038
0.719330 0.000000 0.376038
0.899170 0.000000 0.376038
1.000000 0.000000 0.376038
1.000000 0.000000 0.376038
0.000000 0.180817 0.376038
0.179840 0.180817 0.376038
0.359650 0.180817 0.376038
0.539490 0.180817 0.376038
0.719330 0.180817 0.376038
0.899170 0.180817 0.376038
1.000000 0.180817 0.376038
1.000000 0.180817 0.376038
0.000000 0.361603 0.376038
0.179840 0.361603 0.376038
0.359650 0.361603 0.376038
0.539490 0.361603 0.376038
0.719330 0.361603 0.376038
0.899170 0.361603 0.376038
1.000000 0.361603 0.376038
1.000000 0.361603 0.376038
0.000000 0.542419 0.376038
0.179840 0.542419 0.376038
0.359650 0.542419 0.376038
0.539490 0.542419 0.376038
0.719330 0.542419 0.376038
0.899170 0.542419 0.376038
1.000000 0.542419 0.376038
1.000000 0.542419 0.376038
0.000000 0.723267 0.376038
0.179840 0.723267 0.376038
0.359650 0.723267 0.376038
0.539490 0.723267 0.376038
0.719330 0.723267 0.376038
0.899170 0.723267 0.376038
1.000000 0.723267 0.376038
1.000000 0.723267 0.376038
0.000000 0.904083 0.376038
0.179840 0.904083 0.376038
0.359650 0.904083 0.376038
0.539490 0.904083 0.376038
0.719330 0.904083 0.376038
0.899170 0.904083 0.376038
1.000000 0.904083 0.376038
1.000000 0.904083 0.376038
0.000000 1.000000 0.376038
0.179840 1.000000 0.376038
0.359650 1.000000 0.376038
0.539490 1.000000 0.376038
0.719330 1.000000 0.376038
0.899170 1.000000 0.376038
1.000000 1.000000 0.376038
1.000000 1.000000 0.376038
0.000000 1.000000 0.376038
0.179840 1.000000 0.376038
0.359650 1.000000 0.376038
0.539490 1.000000 0.376038
0.719330 1.000000 0.376038
0.899170 1.000000 0.376038
1.000000 1.000000 0.376038
1.000000 1.000000 0.376038
0.000000 0.000000 0.564026
0.179840 0.000000 0.564026
0.359650 0.000000 0.564026
0.539490 0.000000 0.564026
0.719330 0.000000 0.564026
0.899170 0.000000 0.564026
1.000000 0.000000 0.564026
1.000000 0.000000 0.564026
0.000000 0.180817 0.564026
0.179840 0.180817 0.564026
0.359650 0.180817 0.564026
0.539490 0.180817 0.564026
0.719330 0.180817 0.564026
0.899170 0.180817 0.564026
1.000000 0.180817 0.564026
1.000000 0.180817 0.564026
0.000000 0.361603 0.564026
0.179840 0.361603 0.564026
0.359650 0.361603 0.564026
0.539490 0.361603 0.564026
0.719330 0.361603 0.564026
0.899170 0.361603 0.564026
1.000000 0.361603 0.564026
1.000000 0.361603 0.564026
0.000000 0.542419 0.564026
0.179840 0.542419 0.564026
0.359650 0.542419 0.564026
0.539490 0.542419 0.564026
0.719330 0.542419 0.564026
0.899170 0.542419 0.564026
1.000000 0.542419 0.564026
1.000000 0.542419 0.564026
0.000000 0.723267 0.564026
0.179840 0.723267 0.564026
0.359650 0.723267 0.564026
0.539490 0.723267 0.564026
0.719330 0.723267 0.564026
0.899170 0.723267 0.564026
1.000000 0.723267 0.564026
1.000000 0.723267 0.564026
0.000000 0.904083 0.564026
0.179840 0.904083 0.564026
0.359650 0.904083 0.564026
0.539490 0.904083 0.564026
0.719330 0.904083 0.564026
0.899170 0.904083 0.564026
1.000000 0.904083 0.564026
1.000000 0.904083 0.564026
0.000000 1.000000 0.564026
0.179840 1.000000 0.564026
0.359650 1.000000 0.564026
0.539490 1.000000 0.564026
0.719330 1.000000 0.564026
0.899170 1.000000 0.564026
1.000000 1.000000 0.564026
1.000000 1.000000 0.564026
0.000000 1.000000 0.564026
0.179840 1.000000 0.564026
0.359650 1.000000 0.564026
0.539490 1.000000 0.564026
0.719330 1.000000 0.564026
0.899170 1.000000 0.564026
1.000000 1.000000 0.564026
1.000000 1.000000 0.564026
0.000000 0.000000 0.752106
0.179840 0.000000 0.752106
0.359650 0.000000 0.752106
0.539490 0.000000 0.752106
0.719330 0.000000 0.752106
0.899170 0.000000 0.752106
1.000000 0.000000 0.752106
1.000000 0.000000 0.752106
0.000000 0.180817 0.752106
0.179840 0.180817 0.752106
0.359650 0.180817 0.752106
0.539490 0.180817 0.752106
0.719330 0.180817 0.752106
0.899170 0.180817 0.752106
1.000000 0.180817 0.752106
1.000000 0.180817 0.752106
0.000000 0.361603 0.752106
0.179840 0.361603 0.752106
0.359650 0.361603 0.752106
0.539490 0.361603 0.752106
0.719330 0.361603 0.752106
0.899170 0.361603 0.752106
1.000000 0.361603 0.752106
1.000000 0.361603 0.752106
0.000000 0.542419 0.752106
0.179840 0.542419 0.752106
0.359650 0.542419 0.752106
0.539490 0.542419 0.752106
0.719330 0.542419 0.752106
0.899170 0.542419 0.752106
1.000000 0.542419 0.752106
1.000000 0.542419 0.752106
0.000000 0.723267 0.752106
0.179840 0.723267 0.752106
0.359650 0.723267 0.752106
0.539490 0.723267 0.752106
0.719330 0.723267 0.752106
0.899170 0.723267 0.752106
1.000000 0.723267 0.752106
1.000000 0.723267 0.752106
0.000000 0.904083 0.752106
0.179840 0.904083 0.752106
0.359650 0.904083 0.752106
0.539490 0.904083 0.752106
0.719330 0.904083 0.752106
0.899170 0.904083 0.752106
1.000000 0.904083 0.752106
1.000000 0.904083 0.752106
0.000000 1.000000 0.752106
0.179840 1.000000 0.752106
0.359650 1.000000 0.752106
0.539490 1.000000 0.752106
0.719330 1.000000 0.752106
0.899170 1.000000 0.752106
1.000000 1.000000 0.752106
1.000000 1.000000 0.752106
0.000000 1.000000 0.752106
0.179840 1.000000 0.752106
0.359650 1.000000 0.752106
0.539490 1.000000 0.752106
0.719330 1.000000 0.752106
0.899170 1.000000 0.752106
1.000000 1.000000 0.752106
1.000000 1.000000 0.752106
0.000000 0.000000 0.940125
0.179840 0.000000 0.940125
0.359650 0.000000 0.940125
0.539490 0.000000 0.940125
0.719330 0.000000 0.940125
0.899170 0.000000 0.940125
1.000000 0.000000 0.940125
1.000000 0.000000 0.940125
0.000000 0.180817 0.940125
0.179840 0.180817 0.940125
0.359650 0.180817 0.940125
0.539490 0.180817 0.940125
0.719330 0.180817 0.940125
0.899170 0.180817 0.940125
1.000000 0.180817 0.940125
1.000000 0.180817 0.940125
0.000000 0.361603 0.940125
0.179840 0.361603 0.940125
0.359650 0.361603 0.940125
0.539490 0.361603 0.940125
0.719330 0.361603 0.940125
0.899170 0.361603 0.940125
1.000000 0.361603 0.940125
1.000000 0.361603 0.940125
0.000000 0.542419 0.940125
0.179840 0.542419 0.940125
0.359650 0.542419 0.940125
0.539490 0.542419 0.940125
0.719330 0.542419 0.940125
0.899170 0.542419 0.940125
1.000000 0.542419 0.940125
1.000000 0.542419 0.940125
0.000000 0.723267 0.940125
0.179840 0.723267 0.940125
0.359650 0.723267 0.940125
0.539490 0.723267 0.940125
0.719330 0.723267 0.940125
0.899170 0.723267 0.940125
1.000000 0.723267 0.940125
1.000000 0.723267 0.940125
0.000000 0.904083 0.940125
0.179840 0.904083 0.940125
0.359650 0.904083 0.940125
0.539490 0.904083 0.940125
0.719330 0.904083 0.940125
0.899170 0.904083 0.940125
1.000000 0.904083 0.940125
1.000000 0.904083 0.940125
0.000000 1.000000 0.940125
0.179840 1.000000 0.940125
0.359650 1.000000 0.940125
0.539490 1.000000 0.940125
0.719330 1.000000 0.940125
0.899170 1.000000 0.940125
1.000000 1.000000 0.940125
1.000000 1.000000 0.940125
0.000000 1.000000 0.940125
0.179840 1.000000 0.940125
0.359650 1.000000 0.940125
0.539490 1.000000 0.940125
0.719330 1.000000 0.940125
0.899170 1.000000 0.940125
1.000000 1.000000 0.940125
1.000000 1.000000 0.940125
0.000000 0.000000 1.000000
0.179840 0.000000 1.000000
0.359650 0.000000 1.000000
0.539490 0.000000 1.000000
0.719330 0.000000 1.000000
0.899170 0.000000 1.000000
1.000000 0.000000 1.000000
1.000000 0.000000 1.000000
0.000000 0.180817 1.000000
0.179840 0.180817 1.000000
0.359650 0.180817 1.000000
0.539490 0.180817 1.000000
0.719330 0.180817 1.000000
0.899170 0.180817 1.000000
1.000000 0.180817 1.000000
1.000000 0.180817 1.000000
0.000000 0.361603 1.000000
0.179840 0.361603 1.000000
0.359650 0.361603 1.000000
0.539490 0.361603 1.000000
0.719330 0.361603 1.000000
0.899170 0.361603 1.000000
1.000000 0.361603 1.000000
1.000000 0.361603 1.000000
0.000000 0.542419 1.000000
0.179840 0.542419 1.000000
0.359650 0.542419 1.000000
0.539490 0.542419 1.000000
0.719330 0.542419 1.000000
0.899170 0.542419 1.000000
1.000000 0.542419 1.000000
1.000000 0.542419 1.000000
0.000000 0.723267 1.000000
0.179840 0.723267 1.000000
0.359650 0.723267 1.000000
0.539490 0.723267 1.000000
0.719330 0.723267 1.000000
0.899170 0.723267 1.000000
1.000000 0.723267 1.000000
1.000000 0.723267 1.000000
0.000000 0.904083 1.000000
0.179840 0.904083 1.000000
0.359650 0.904083 1.000000
0.539490 0.904083 1.000000
0.719330 0.904083 1.000000
0.899170 0.904083 1.000000
1.000000 0.904083 1.000000
1.000000 0.904083 1.000000
0.000000 1.000000 1.000000
0.179840 1.000000 1.000000
0.359650 1.000000 1.000000
0.539490 1.000000 1.000000
0.719330 1.000000 1.000000
0.899170 1.000000 1.000000
1.000000 1.000000 1.000000
1.000000 1.000000 1.000000
0.000000 1.000000 1.000000
0.179840 1.000000 1.000000
0.359650 1.000000 1.000000
0.539490 1.000000 1.000000
0.719330 1.000000 1.000000
0.899170 1.000000 1.000000
1.000000 1.000000 1.000000
1.000000 1.000000 1.000000
0.000000 0.000000 1.000000
0.179840 0.000000 1.000000
0.359650 0.000000 1.000000
0.539490 0.000000 1.000000
0.719330 0.000000 1.000000
0.899170 0.000000 1.000000
1.000000 0.000000 1.000000
1.000000 0.000000 1.000000
0.000000 0.180817 1.000000
0.179840 0.180817 1.000000
0.359650 0.180817 1.000000
0.539490 0.180817 1.000000
0.719330 0.180817 1.000000
0.899170 0.180817 1.000000
1.000000 0.180817 1.000000
1.000000 0.180817 1.000000
0.000000 0.361603 1.000000
0.179840 0.361603 1.000000
0.359650 0.361603 1.000000
0.539490 0.361603 1.000000
0.719330 0.361603 1.000000
0.899170 0.361603 1.000000
1.000000 0.361603 1.000000
1.000000 0.361603 1.000000
0.000000 0.542419 1.000000
0.179840 0.542419 1.000000
0.359650 0.542419 1.000000
0.539490 0.542419 1.000000
0.719330 0.542419 1.000000
0.899170 0.542419 1.000000
1.000000 0.542419 1.000000
1.000000 0.542419 1.000000
0.000000 0.723267 1.000000
0.179840 0.723267 1.000000
0.359650 0.723267 1.000000
0.539490 0.723267 1.000000
0.719330 0.723267 1.000000
0.899170 0.723267 1.000000
1.000000 0.723267 1.000000
1.000000 0.723267 1.000000
0.000000 0.904083 1.000000
0.179840 0.904083 1.000000
0.359650 0.904083 1.000000
0.539490 0.904083 1.000000
0.719330 0.904083 1.000000
0.899170 0.904083 1.000000
1.000000 0.904083 1.000000
1.000000 0.904083 1.000000
0.000000 1.000000 1.000000
0.179840 1.000000 1.000000
0.359650 1.000000 1.000000
0.539490 1.000000 1.000000
0.719330 1.000000 1.000000
0.899170 1.000000 1.000000
1.000000 1.000000 1.000000
1.000000 1.000000 1.000000
0.000000 1.000000 1.000000
0.179840 1.000000 1.000000
0.359650 1.000000 1.000000
0.539490 1.000000 1.000000
0.719330 1.000000 1.000000
0.899170 1.000000 1.000000
1.000000 1.000000 1.000000
1.000000 1.000000 1.000000
